; generated by Slic3r Prusa Edition 1.41.3+ on 2019-05-08 at 20:59:56

; 

; external perimeters extrusion width = 0.45mm
; perimeters extrusion width = 0.45mm
; infill extrusion width = 0.45mm
; solid infill extrusion width = 0.45mm
; top infill extrusion width = 0.40mm
; first layer extrusion width = 0.42mm

M73 P0 R23
M73 Q0 S22
M201 X1000 Y1000 Z1000 E5000 ; sets maximum accelerations, mm/sec^2
M203 X200 Y200 Z12 E120 ; sets maximum feedrates, mm/sec
M204 P1250 R1250 T1250 ; sets acceleration (P, T) and retract acceleration (R), mm/sec^2
M205 X8.00 Y8.00 Z0.40 E1.50 ; sets the jerk limits, mm/sec
M205 S0 T0 ; sets the minimum extruding and travel feed rate, mm/sec
M107
M115 U3.6.0 ; tell printer latest fw version
M83  ; extruder relative mode
M104 S215 ; set extruder temp
M140 S60 ; set bed temp
M190 S60 ; wait for bed temp
M109 S215 ; wait for extruder temp
G28 W ; home all without mesh bed level
G80 ; mesh bed leveling
G1 Y-3.0 F1000.0 ; go outside print area
G92 E0.0
G1 X60.0 E9.0  F1000.0 ; intro line
M73 Q0 S22
M73 P0 R22
G1 X100.0 E12.5  F1000.0 ; intro line
G92 E0.0
M221 S95
M900 K30 ; Filament gcode
G21 ; set units to millimeters
G90 ; use absolute coordinates
M83 ; use relative distances for extrusion
;BEFORE_LAYER_CHANGE
G92 E0.0
;0.2


G1 E-0.80000 F2100.00000
G1 Z0.600 F10800.000
;AFTER_LAYER_CHANGE
;0.2
G1 X98.399 Y94.485
G1 Z0.200
G1 E0.80000 F2100.00000
M204 S1000
G1 F1200
G1 X99.305 Y93.537 E0.04113
G1 X100.424 Y92.852 E0.04113
G1 X101.413 Y92.527 E0.03263
G1 X102.452 Y92.410 E0.03280
G1 X147.506 Y92.409 E1.41261
G1 X148.442 Y92.497 E0.02949
G1 X149.352 Y92.758 E0.02967
G1 X150.193 Y93.180 E0.02949
G1 X150.946 Y93.753 E0.02967
G1 X151.580 Y94.455 E0.02967
G1 X152.070 Y95.258 E0.02949
G1 X152.406 Y96.142 E0.02967
G1 X152.573 Y97.074 E0.02967
G1 X152.591 Y112.511 E0.48403
G1 X152.535 Y113.250 E0.02322
G1 X152.192 Y114.476 E0.03992
G1 X151.555 Y115.578 E0.03992
G1 X150.664 Y116.488 E0.03992
G1 X149.576 Y117.148 E0.03992
G1 X148.587 Y117.473 E0.03263
G1 X147.548 Y117.590 E0.03280
G1 X102.249 Y117.584 E1.42030
G1 X100.879 Y117.326 E0.04373
G1 X99.625 Y116.701 E0.04390
G1 X98.593 Y115.763 E0.04373
G1 X97.852 Y114.576 E0.04390
G1 X97.534 Y113.620 E0.03158
G1 X97.411 Y112.620 E0.03158
G1 X97.445 Y96.899 E0.49291
G1 X97.766 Y95.628 E0.04113
G1 X98.370 Y94.537 E0.03908
G1 F8640
G1 X99.305 Y93.537 E-0.31632
G1 X100.424 Y92.852 E-0.30290
G1 X101.004 Y92.661 E-0.14078
G1 E-0.04000 F2100.00000
G1 Z0.800 F10800.000
G1 X101.042 Y93.531
G1 Z0.200
G1 E0.80000 F2100.00000
G1 F1200
G1 X102.444 Y93.186 E0.04528
G1 X147.586 Y93.190 E1.41540
G1 X148.535 Y93.374 E0.03029
G1 X149.443 Y93.765 E0.03101
G1 X150.662 Y94.788 E0.04990
G1 X151.453 Y96.006 E0.04551
G1 X151.814 Y97.389 E0.04484
G1 X151.785 Y112.788 E0.48282
G1 X151.488 Y113.912 E0.03644
G1 X150.882 Y114.958 E0.03792
G1 X150.029 Y115.827 E0.03816
G1 X148.954 Y116.471 E0.03930
G1 X147.556 Y116.813 E0.04513
G1 X102.446 Y116.813 E1.41438
G1 X101.215 Y116.538 E0.03957
G1 X100.103 Y115.928 E0.03976
G1 X99.186 Y115.046 E0.03989
G1 X98.533 Y113.961 E0.03970
G1 X98.187 Y112.556 E0.04538
G1 X98.202 Y97.314 E0.47790
G1 X98.485 Y96.155 E0.03740
G1 X99.078 Y95.095 E0.03808
G1 X99.960 Y94.182 E0.03982
G1 X100.990 Y93.562 E0.03769
G1 X101.183 Y93.886 F10800.000
G1 F1200
G1 X102.467 Y93.564 E0.04150
G1 X147.568 Y93.567 E1.41411
G1 X148.441 Y93.740 E0.02791
G1 X149.266 Y94.099 E0.02823
G1 X150.397 Y95.058 E0.04647
G1 X151.096 Y96.132 E0.04018
G1 X151.436 Y97.414 E0.04159
G1 X151.415 Y112.715 E0.47977
G1 X151.130 Y113.790 E0.03485
G1 X150.569 Y114.746 E0.03477
G1 X149.779 Y115.544 E0.03519
G1 X148.786 Y116.132 E0.03618
G1 X147.534 Y116.436 E0.04042
G1 X102.467 Y116.436 E1.41304
G1 X101.371 Y116.194 E0.03519
G1 X100.344 Y115.637 E0.03662
G1 X99.496 Y114.829 E0.03673
G1 X98.870 Y113.791 E0.03799
G1 X98.564 Y112.534 E0.04059
G1 X98.574 Y97.381 E0.47508
G1 X98.845 Y96.270 E0.03586
G1 X99.394 Y95.303 E0.03487
G1 X100.212 Y94.463 E0.03678
G1 X101.131 Y93.917 E0.03353
G1 X101.322 Y94.241 F10800.000
G1 F1200
G1 X101.376 Y94.209 E0.00197
G1 X102.489 Y93.941 E0.03588
G1 X147.548 Y93.944 E1.41281
G1 X148.346 Y94.105 E0.02550
G1 X149.088 Y94.433 E0.02545
G1 X150.130 Y95.326 E0.04302
G1 X150.763 Y96.310 E0.03669
G1 X151.059 Y97.438 E0.03656
G1 X151.043 Y112.645 E0.47681
G1 X150.791 Y113.622 E0.03165
G1 X150.256 Y114.534 E0.03315
G1 X149.530 Y115.259 E0.03217
G1 X148.620 Y115.792 E0.03307
G1 X147.511 Y116.059 E0.03576
G1 X102.488 Y116.059 E1.41168
G1 X101.481 Y115.832 E0.03238
G1 X100.549 Y115.319 E0.03335
G1 X99.776 Y114.576 E0.03362
G1 X99.209 Y113.623 E0.03475
G1 X98.941 Y112.511 E0.03586
G1 X98.945 Y97.447 E0.47235
G1 X99.186 Y96.433 E0.03267
G1 X99.709 Y95.511 E0.03322
G1 X100.463 Y94.746 E0.03368
G1 X101.270 Y94.271 E0.02936
G1 X101.543 Y94.549 F10800.000
G1 F1200
G1 X102.511 Y94.318 E0.03119
G1 X147.529 Y94.321 E1.41151
G1 X148.248 Y94.470 E0.02304
G1 X148.908 Y94.765 E0.02266
G1 X149.862 Y95.592 E0.03960
G1 X150.406 Y96.437 E0.03149
G1 X150.682 Y97.463 E0.03331
G1 X150.672 Y112.576 E0.47387
G1 X150.451 Y113.457 E0.02848
G1 X149.972 Y114.285 E0.03000
G1 X149.282 Y114.975 E0.03059
G1 X148.456 Y115.452 E0.02990
G1 X147.490 Y115.682 E0.03115
G1 X102.510 Y115.682 E1.41031
G1 X101.592 Y115.471 E0.02951
G1 X100.756 Y115.003 E0.03007
G1 X100.058 Y114.324 E0.03052
G1 X99.549 Y113.457 E0.03152
G1 X99.318 Y112.490 E0.03119
G1 X99.318 Y97.510 E0.46968
G1 X99.529 Y96.592 E0.02951
G1 X99.997 Y95.756 E0.03007
G1 X100.676 Y95.058 E0.03052
G1 X101.491 Y94.579 E0.02964
G1 X101.680 Y94.905 F10800.000
G1 F1200
G1 X102.532 Y94.695 E0.02752
G1 X147.510 Y94.698 E1.41024
G1 X148.113 Y94.823 E0.01932
G1 X148.728 Y95.097 E0.02110
G1 X149.592 Y95.857 E0.03609
G1 X150.072 Y96.614 E0.02809
G1 X150.305 Y97.487 E0.02835
G1 X150.300 Y112.510 E0.47103
G1 X150.111 Y113.293 E0.02524
G1 X149.659 Y114.074 E0.02831
G1 X149.035 Y114.688 E0.02743
G1 X148.294 Y115.111 E0.02677
G1 X147.468 Y115.305 E0.02660
G1 X102.532 Y115.305 E1.40894
G1 X101.706 Y115.111 E0.02660
G1 X100.965 Y114.688 E0.02677
G1 X100.341 Y114.074 E0.02743
G1 X99.889 Y113.293 E0.02829
G1 X99.695 Y112.468 E0.02658
G1 X99.695 Y97.532 E0.46831
G1 X99.889 Y96.706 E0.02660
G1 X100.312 Y95.965 E0.02677
G1 X100.926 Y95.341 E0.02743
G1 X101.628 Y94.935 E0.02543
G1 X101.869 Y95.231 F10800.000
G1 F1200
G1 X102.553 Y95.072 E0.02203
G1 X147.489 Y95.076 E1.40894
G1 X148.014 Y95.187 E0.01681
G1 X148.545 Y95.428 E0.01829
G1 X149.322 Y96.121 E0.03263
G1 X149.716 Y96.741 E0.02306
G1 X149.928 Y97.513 E0.02510
G1 X149.928 Y112.447 E0.46823
G1 X149.769 Y113.131 E0.02203
G1 X149.373 Y113.826 E0.02508
G1 X148.826 Y114.373 E0.02426
G1 X148.131 Y114.769 E0.02508
G1 X147.447 Y114.928 E0.02203
G1 X102.553 Y114.928 E1.40761
G1 X101.869 Y114.769 E0.02203
G1 X101.174 Y114.373 E0.02508
G1 X100.627 Y113.826 E0.02426
G1 X100.231 Y113.131 E0.02508
G1 X100.072 Y112.447 E0.02203
G1 X100.072 Y97.553 E0.46698
G1 X100.231 Y96.869 E0.02203
G1 X100.627 Y96.174 E0.02508
G1 X101.174 Y95.627 E0.02426
G1 X101.817 Y95.260 E0.02320
G1 X102.000 Y95.589 F10800.000
G1 F1200
G1 X102.574 Y95.449 E0.01852
G1 X147.468 Y95.453 E1.40762
G1 X147.911 Y95.550 E0.01423
G1 X148.359 Y95.758 E0.01548
G1 X149.050 Y96.383 E0.02920
G1 X149.362 Y96.871 E0.01818
G1 X149.551 Y97.540 E0.02179
G1 X149.551 Y112.426 E0.46674
G1 X149.427 Y112.972 E0.01755
G1 X149.088 Y113.579 E0.02179
G1 X148.579 Y114.088 E0.02257
G1 X147.972 Y114.427 E0.02179
G1 X147.426 Y114.551 E0.01755
G1 X102.574 Y114.551 E1.40630
G1 X102.028 Y114.427 E0.01755
G1 X101.421 Y114.088 E0.02179
G1 X100.912 Y113.579 E0.02257
G1 X100.573 Y112.972 E0.02179
G1 X100.449 Y112.426 E0.01755
G1 X100.449 Y97.574 E0.46568
M73 Q4 S21
M73 P4 R21
G1 X100.573 Y97.028 E0.01755
G1 X100.912 Y96.421 E0.02179
G1 X101.421 Y95.912 E0.02257
G1 X101.948 Y95.618 E0.01891
G1 X101.668 Y96.199 F10800.000
G1 F1200
G1 X102.184 Y95.918 E0.01842
G1 X102.594 Y95.826 E0.01318
G1 X147.446 Y95.830 E1.40628
G1 X147.805 Y95.913 E0.01157
G1 X148.171 Y96.085 E0.01268
G1 X148.776 Y96.643 E0.02580
G1 X149.008 Y97.005 E0.01347
G1 X149.174 Y97.568 E0.01841
G1 X149.174 Y112.406 E0.46522
G1 X149.082 Y112.816 E0.01318
G1 X148.801 Y113.332 E0.01842
G1 X148.332 Y113.801 E0.02081
G1 X147.816 Y114.082 E0.01842
G1 X147.406 Y114.174 E0.01318
G1 X102.594 Y114.174 E1.40503
G1 X102.184 Y114.082 E0.01318
G1 X101.668 Y113.801 E0.01842
G1 X101.199 Y113.332 E0.02081
G1 X100.918 Y112.816 E0.01842
G1 X100.826 Y112.406 E0.01318
G1 X100.826 Y97.594 E0.46440
G1 X100.918 Y97.184 E0.01318
G1 X101.199 Y96.668 E0.01842
G1 X101.626 Y96.241 E0.01893
G1 X101.914 Y96.486 F10800.000
G1 F1200
G1 X102.336 Y96.264 E0.01496
G1 X102.614 Y96.203 E0.00892
G1 X147.424 Y96.207 E1.40499
G1 X147.662 Y96.262 E0.00767
G1 X147.982 Y96.413 E0.01109
G1 X148.501 Y96.901 E0.02233
G1 X148.656 Y97.142 E0.00898
G1 X148.797 Y97.598 E0.01495
G1 X148.797 Y112.386 E0.46368
G1 X148.736 Y112.664 E0.00892
G1 X148.514 Y113.086 E0.01496
G1 X148.086 Y113.514 E0.01896
G1 X147.664 Y113.736 E0.01496
G1 X147.386 Y113.797 E0.00892
G1 X102.614 Y113.797 E1.40380
G1 X102.336 Y113.736 E0.00892
G1 X101.914 Y113.514 E0.01496
G1 X101.486 Y113.086 E0.01896
G1 X101.264 Y112.664 E0.01496
G1 X101.203 Y112.386 E0.00892
G1 X101.203 Y97.614 E0.46317
G1 X101.264 Y97.336 E0.00892
G1 X101.486 Y96.914 E0.01496
G1 X101.872 Y96.529 E0.01708
G1 X102.482 Y96.612 F10800.000
G1 F1200
G1 X102.633 Y96.580 E0.00484
G1 X147.402 Y96.584 E1.40371
G1 X147.519 Y96.611 E0.00377
G1 X147.792 Y96.740 E0.00947
G1 X148.223 Y97.157 E0.01880
G1 X148.307 Y97.285 E0.00479
G1 X148.420 Y97.629 E0.01136
G1 X148.420 Y112.367 E0.46210
G1 X148.388 Y112.518 E0.00484
G1 X148.225 Y112.842 E0.01136
G1 X147.842 Y113.225 E0.01697
G1 X147.518 Y113.388 E0.01136
G1 X147.367 Y113.420 E0.00484
G1 X102.633 Y113.420 E1.40262
G1 X102.482 Y113.388 E0.00484
G1 X102.158 Y113.225 E0.01136
G1 X101.775 Y112.842 E0.01697
G1 X101.612 Y112.518 E0.01136
G1 X101.580 Y112.367 E0.00484
G1 X101.580 Y97.633 E0.46199
G1 X101.612 Y97.482 E0.00484
G1 X101.775 Y97.158 E0.01136
G1 X102.158 Y96.775 E0.01697
G1 X102.428 Y96.639 E0.00948
G1 X102.588 Y96.978 F10800.000
G1 F1200
G1 X102.650 Y96.957 E0.00205
G1 X147.382 Y96.964 E1.40252
G1 X147.600 Y97.067 E0.00757
G1 X147.943 Y97.410 E0.01522
G1 X148.043 Y97.664 E0.00856
G1 X148.036 Y112.382 E0.46145
G1 X147.933 Y112.600 E0.00757
G1 X147.600 Y112.933 E0.01477
G1 X147.350 Y113.043 E0.00856
G1 X102.618 Y113.036 E1.40252
G1 X102.400 Y112.933 E0.00757
G1 X102.067 Y112.600 E0.01477
G1 X101.957 Y112.350 E0.00856
G1 X101.957 Y97.650 E0.46089
G1 X102.067 Y97.400 E0.00856
G1 X102.400 Y97.067 E0.01477
G1 X102.534 Y97.004 E0.00464
G1 X102.637 Y97.363 F10800.000
G1 F1200
G1 X102.706 Y97.334 E0.00235
G1 X147.294 Y97.334 E1.39801
G1 X147.363 Y97.363 E0.00235
G1 X147.637 Y97.637 E0.01215
G1 X147.666 Y97.706 E0.00235
G1 X147.666 Y112.294 E0.45738
G1 X147.637 Y112.363 E0.00235
G1 X147.363 Y112.637 E0.01215
G1 X147.294 Y112.666 E0.00235
G1 X102.706 Y112.666 E1.39801
G1 X102.637 Y112.637 E0.00235
G1 X102.363 Y112.363 E0.01215
G1 X102.334 Y112.294 E0.00235
G1 X102.334 Y97.706 E0.45738
G1 X102.363 Y97.637 E0.00235
G1 X102.595 Y97.406 E0.01027
G1 X102.822 Y97.711 F10800.000
G1 F1200
G1 X147.178 Y97.711 E1.39076
G1 X147.289 Y97.822 E0.00490
G1 X147.289 Y112.178 E0.45013
G1 X147.178 Y112.289 E0.00490
G1 X102.822 Y112.289 E1.39076
G1 X102.711 Y112.178 E0.00490
G1 X102.711 Y97.822 E0.45013
G1 X102.779 Y97.754 E0.00302
; PURGING FINISHED
G1 X103.110 Y98.110 F10800.000
G1 F1200
G1 X146.890 Y98.110 E1.37269
G1 X146.890 Y111.890 E0.43206
G1 X103.110 Y111.890 E1.37269
G1 X103.110 Y98.170 E0.43018
G1 X103.508 Y98.151 F10800.000
G1 X103.487 Y98.487
G1 F1200
G1 X146.513 Y98.487 E1.34905
G1 X146.513 Y111.513 E0.40842
G1 X103.487 Y111.513 E1.34905
G1 X103.487 Y98.547 E0.40653
G1 X103.864 Y98.864 F10800.000
G1 F1200
G1 X146.136 Y98.864 E1.32540
G1 X146.136 Y111.136 E0.38477
G1 X103.864 Y111.136 E1.32540
G1 X103.864 Y98.924 E0.38289
G1 F8640
G1 X107.156 Y98.919 E-0.76000
G1 E-0.04000 F2100.00000
G1 Z0.800 F10800.000
G1 X138.341 Y99.241
G1 Z0.200
G1 E0.80000 F2100.00000
G1 F1200
G1 X145.759 Y99.241 E0.23257
G1 X145.759 Y110.759 E0.36112
G1 X138.341 Y110.759 E0.23257
G1 X138.341 Y99.301 E0.35924
G1 F8640
G1 X141.633 Y99.275 E-0.76000
G1 E-0.04000 F2100.00000
G1 Z0.800 F10800.000
G1 X110.359 Y99.301
G1 Z0.200
G1 E0.80000 F2100.00000
G1 F1200
G1 X110.359 Y110.759 E0.35924
G1 X104.241 Y110.759 E0.19181
G1 X104.241 Y99.241 E0.36112
G1 X110.359 Y99.241 E0.19181
G1 F8640
G1 X110.359 Y102.533 E-0.76000
G1 E-0.04000 F2100.00000
G1 Z0.800 F10800.000
G1 X111.490 Y99.879
G1 Z0.200
G1 E0.80000 F2100.00000
M73 Q9 S20
G1 F1200
G1 X137.210 Y99.879 E0.80643
M73 P9 R20
G1 X137.210 Y110.299 E0.32671
G1 X111.490 Y110.299 E0.80643
G1 X111.490 Y99.939 E0.32483
G1 X111.336 Y99.510 F10800.000
G1 X111.113 Y99.502
G1 F1200
G1 X137.587 Y99.502 E0.83008
G1 X137.587 Y110.676 E0.35036
G1 X111.113 Y110.676 E0.83008
G1 X111.113 Y99.562 E0.34848
G1 X110.736 Y99.125 F10800.000
G1 F1200
G1 X137.964 Y99.125 E0.85372
G1 X137.964 Y111.053 E0.37400
G1 X110.736 Y111.053 E0.85372
G1 X110.736 Y99.185 E0.37212
G1 F8640
G1 X114.027 Y99.178 E-0.76000
G1 E-0.04000 F2100.00000
G1 Z0.800 F10800.000
G1 X110.246 Y100.126
G1 Z0.200
G1 E0.80000 F2100.00000
G1 F1200
G1 X109.644 Y99.524 E0.02698
G1 X109.105 Y99.524 E0.01710
G1 X110.076 Y100.495 E0.04356
G1 X110.076 Y101.035 E0.01710
G1 X108.565 Y99.524 E0.06774
G1 X108.026 Y99.524 E0.01710
G1 X110.076 Y101.574 E0.09193
G1 X110.076 Y102.113 E0.01710
G1 X107.487 Y99.524 E0.11611
G1 X106.947 Y99.524 E0.01710
G1 X110.076 Y102.653 E0.14030
G1 X110.076 Y103.192 E0.01710
G1 X106.408 Y99.524 E0.16448
G1 X105.869 Y99.524 E0.01710
G1 X110.076 Y103.731 E0.18867
G1 X110.076 Y104.270 E0.01710
G1 X105.330 Y99.524 E0.21285
G1 X104.790 Y99.524 E0.01710
G1 X110.076 Y104.810 E0.23704
G1 X110.076 Y105.349 E0.01710
G1 X104.524 Y99.797 E0.24897
G1 X104.524 Y100.336 E0.01710
G1 X110.076 Y105.888 E0.24897
G1 X110.076 Y106.428 E0.01710
G1 X104.524 Y100.876 E0.24897
G1 X104.524 Y101.415 E0.01710
G1 X110.076 Y106.967 E0.24897
G1 X110.076 Y107.506 E0.01710
G1 X104.524 Y101.954 E0.24897
G1 X104.524 Y102.494 E0.01710
G1 X110.076 Y108.046 E0.24897
G1 X110.076 Y108.585 E0.01710
G1 X104.524 Y103.033 E0.24897
G1 X104.524 Y103.572 E0.01710
G1 X110.076 Y109.124 E0.24897
G1 X110.076 Y109.664 E0.01710
G1 X104.524 Y104.112 E0.24897
G1 X104.524 Y104.651 E0.01710
G1 X110.076 Y110.203 E0.24897
G1 X110.076 Y110.476 E0.00866
G1 X109.810 Y110.476 E0.00844
G1 X104.524 Y105.190 E0.23703
G1 X104.524 Y105.730 E0.01710
G1 X109.270 Y110.476 E0.21285
G1 X108.731 Y110.476 E0.01710
G1 X104.524 Y106.269 E0.18866
G1 X104.524 Y106.808 E0.01710
G1 X108.192 Y110.476 E0.16448
G1 X107.652 Y110.476 E0.01710
G1 X104.524 Y107.348 E0.14029
G1 X104.524 Y107.887 E0.01710
G1 X107.113 Y110.476 E0.11611
G1 X106.574 Y110.476 E0.01710
G1 X104.524 Y108.426 E0.09192
G1 X104.524 Y108.965 E0.01710
G1 X106.035 Y110.476 E0.06774
G1 X105.495 Y110.476 E0.01710
G1 X104.524 Y109.505 E0.04355
G1 X104.524 Y110.044 E0.01710
G1 X105.126 Y110.646 E0.02698
G1 F8640
G1 X104.524 Y110.044 E-0.19643
G1 X104.524 Y109.505 E-0.12453
G1 X105.495 Y110.476 E-0.31713
G1 X106.023 Y110.476 E-0.12191
G1 E-0.04000 F2100.00000
G1 Z0.800 F10800.000
G1 X139.235 Y110.646
G1 Z0.200
G1 E0.80000 F2100.00000
G1 F1200
G1 X138.624 Y110.034 E0.02774
G1 X138.624 Y109.489 E0.01752
G1 X139.611 Y110.476 E0.04482
G1 X140.157 Y110.476 E0.01752
G1 X138.624 Y108.943 E0.06959
G1 X138.624 Y108.397 E0.01752
G1 X140.703 Y110.476 E0.09436
G1 X141.249 Y110.476 E0.01752
G1 X138.624 Y107.851 E0.11913
G1 X138.624 Y107.305 E0.01752
G1 X141.795 Y110.476 E0.14391
G1 X142.341 Y110.476 E0.01752
G1 X138.624 Y106.759 E0.16868
G1 X138.624 Y106.214 E0.01752
G1 X142.886 Y110.476 E0.19345
G1 X143.432 Y110.476 E0.01752
G1 X138.624 Y105.668 E0.21822
G1 X138.624 Y105.122 E0.01752
G1 X143.978 Y110.476 E0.24300
G1 X144.524 Y110.476 E0.01752
G1 X138.624 Y104.576 E0.26777
G1 X138.624 Y104.030 E0.01752
G1 X145.070 Y110.476 E0.29254
G1 X145.476 Y110.476 E0.01304
G1 X145.476 Y110.336 E0.00448
G1 X138.624 Y103.484 E0.31098
G1 X138.624 Y102.939 E0.01752
