; generated by Slic3r Prusa Edition 1.41.3+ on 2019-05-08 at 22:44:41

; 

; external perimeters extrusion width = 0.45mm
; perimeters extrusion width = 0.45mm
; infill extrusion width = 0.45mm
; solid infill extrusion width = 0.45mm
; top infill extrusion width = 0.40mm
; first layer extrusion width = 0.42mm

M73 P0 R29
M73 Q0 S30
M201 X1000 Y1000 Z1000 E5000 ; sets maximum accelerations, mm/sec^2
M203 X200 Y200 Z12 E120 ; sets maximum feedrates, mm/sec
M204 P1250 R1250 T1250 ; sets acceleration (P, T) and retract acceleration (R), mm/sec^2
M205 X8.00 Y8.00 Z0.40 E1.50 ; sets the jerk limits, mm/sec
M205 S0 T0 ; sets the minimum extruding and travel feed rate, mm/sec
M107
M115 U3.6.0 ; tell printer latest fw version
M83  ; extruder relative mode
M104 S215 ; set extruder temp
M140 S60 ; set bed temp
M190 S60 ; wait for bed temp
M109 S215 ; wait for extruder temp
G28 W ; home all without mesh bed level
G80 ; mesh bed leveling
G1 Y-3.0 F1000.0 ; go outside print area
G92 E0.0
G1 X60.0 E9.0  F1000.0 ; intro line
M73 Q0 S29
M73 P0 R29
G1 X100.0 E12.5  F1000.0 ; intro line
G92 E0.0
M221 S95
M900 K30 ; Filament gcode
G21 ; set units to millimeters
G90 ; use absolute coordinates
M83 ; use relative distances for extrusion
;BEFORE_LAYER_CHANGE
G92 E0.0
;0.2


G1 E-0.80000 F2100.00000
G1 Z0.600 F10800.000
;AFTER_LAYER_CHANGE
;0.2
G1 X90.116 Y58.565
G1 Z0.200
G1 E0.80000 F2100.00000
M204 S1000
G1 F1200
G1 X90.695 Y57.284 E0.04408
G1 X91.475 Y56.327 E0.03870
G1 X92.458 Y55.590 E0.03853
G1 X93.594 Y55.107 E0.03870
G1 X94.813 Y54.913 E0.03870
G1 X155.006 Y54.909 E1.88729
G1 X155.970 Y55.003 E0.03036
G1 X156.898 Y55.277 E0.03036
G1 X157.758 Y55.722 E0.03036
G1 X158.523 Y56.325 E0.03054
G1 X159.155 Y57.059 E0.03036
G1 X159.637 Y57.899 E0.03036
G1 X159.951 Y58.815 E0.03036
G1 X160.086 Y59.774 E0.03036
G1 X160.090 Y150.045 E2.83037
G1 X159.884 Y151.435 E0.04408
G1 X159.305 Y152.716 E0.04408
G1 X158.513 Y153.684 E0.03922
G1 X157.513 Y154.427 E0.03905
G1 X156.358 Y154.906 E0.03922
G1 X155.120 Y155.089 E0.03922
G1 X94.939 Y155.090 E1.88694
G1 X93.560 Y154.883 E0.04373
G1 X92.284 Y154.305 E0.04390
G1 X91.312 Y153.509 E0.03940
G1 X90.565 Y152.499 E0.03940
G1 X90.088 Y151.336 E0.03940
G1 X89.910 Y150.087 E0.03957
G1 X89.910 Y59.955 E2.82600
G1 X90.107 Y58.624 E0.04219
G1 F8640
G1 X90.695 Y57.284 E-0.33794
G1 X91.475 Y56.327 E-0.28503
G1 X91.950 Y55.971 E-0.13704
G1 E-0.04000 F2100.00000
G1 Z0.800 F10800.000
G1 X90.935 Y57.530
G1 Z0.200
G1 E0.80000 F2100.00000
G1 F1200
G1 X91.439 Y56.892 E0.02550
G1 X92.451 Y55.994 E0.04242
G1 X93.267 Y55.585 E0.02862
G1 X94.491 Y55.286 E0.03948
G1 X155.486 Y55.290 E1.91248
G1 X156.435 Y55.474 E0.03029
G1 X157.343 Y55.865 E0.03101
G1 X158.562 Y56.888 E0.04990
G1 X159.353 Y58.106 E0.04551
G1 X159.713 Y59.489 E0.04481
G1 X159.713 Y150.547 E2.85507
G1 X159.065 Y152.470 E0.06363
G1 X158.561 Y153.108 E0.02550
G1 X157.549 Y154.006 E0.04242
G1 X156.733 Y154.415 E0.02862
G1 X155.510 Y154.713 E0.03947
G1 X94.453 Y154.713 E1.91438
G1 X92.530 Y154.065 E0.06363
G1 X91.892 Y153.561 E0.02550
G1 X90.994 Y152.549 E0.04242
G1 X90.585 Y151.733 E0.02862
G1 X90.287 Y150.510 E0.03947
G1 X90.287 Y59.453 E2.85501
G1 X90.916 Y57.587 E0.06175
G1 X91.252 Y57.737 F10800.000
G1 F1200
G1 X91.704 Y57.161 E0.02295
G1 X92.644 Y56.318 E0.03960
G1 X93.380 Y55.945 E0.02585
G1 X94.514 Y55.664 E0.03664
G1 X155.468 Y55.667 E1.91116
G1 X156.341 Y55.840 E0.02791
G1 X157.166 Y56.199 E0.02823
G1 X158.297 Y57.158 E0.04647
G1 X158.996 Y58.232 E0.04018
G1 X159.336 Y59.513 E0.04157
G1 X159.336 Y150.516 E2.85333
G1 X158.748 Y152.263 E0.05778
G1 X158.296 Y152.839 E0.02295
G1 X157.356 Y153.682 E0.03960
G1 X156.620 Y154.055 E0.02585
G1 X155.486 Y154.336 E0.03664
G1 X94.484 Y154.336 E1.91269
G1 X92.737 Y153.748 E0.05778
G1 X92.161 Y153.296 E0.02295
G1 X91.318 Y152.356 E0.03960
G1 X90.945 Y151.620 E0.02585
G1 X90.664 Y150.486 E0.03664
G1 X90.664 Y59.484 E2.85332
G1 X91.233 Y57.794 E0.05590
G1 X91.569 Y57.943 F10800.000
G1 F1200
G1 X91.970 Y57.429 E0.02043
G1 X92.840 Y56.642 E0.03679
G1 X93.494 Y56.305 E0.02308
G1 X94.538 Y56.041 E0.03376
G1 X155.448 Y56.044 E1.90981
G1 X156.246 Y56.205 E0.02550
G1 X156.988 Y56.533 E0.02545
G1 X158.030 Y57.426 E0.04302
G1 X158.663 Y58.410 E0.03669
G1 X158.959 Y59.538 E0.03655
G1 X158.959 Y150.486 E2.85161
M73 Q3 S28
M73 P3 R28
G1 X158.431 Y152.057 E0.05197
G1 X158.030 Y152.571 E0.02043
G1 X157.160 Y153.358 E0.03679
G1 X156.506 Y153.695 E0.02308
G1 X155.462 Y153.959 E0.03376
G1 X94.514 Y153.959 E1.91098
G1 X92.943 Y153.431 E0.05197
G1 X92.429 Y153.030 E0.02043
G1 X91.642 Y152.160 E0.03679
G1 X91.305 Y151.506 E0.02308
G1 X91.041 Y150.462 E0.03376
G1 X91.041 Y59.514 E2.85161
G1 X91.550 Y58.000 E0.05009
G1 X91.887 Y58.149 F10800.000
G1 F1200
G1 X92.237 Y57.696 E0.01793
G1 X93.037 Y56.964 E0.03399
G1 X93.611 Y56.665 E0.02030
G1 X94.562 Y56.418 E0.03083
G1 X155.429 Y56.421 E1.90842
G1 X156.148 Y56.570 E0.02304
G1 X156.808 Y56.865 E0.02266
G1 X157.762 Y57.692 E0.03960
G1 X158.306 Y58.537 E0.03149
G1 X158.582 Y59.563 E0.03331
G1 X158.582 Y150.455 E2.84986
G1 X158.113 Y151.851 E0.04619
G1 X157.763 Y152.304 E0.01793
G1 X156.963 Y153.036 E0.03399
G1 X156.389 Y153.335 E0.02030
G1 X155.438 Y153.582 E0.03082
G1 X94.545 Y153.582 E1.90925
G1 X93.149 Y153.113 E0.04619
G1 X92.696 Y152.763 E0.01793
G1 X91.964 Y151.963 E0.03399
G1 X91.665 Y151.389 E0.02030
G1 X91.418 Y150.438 E0.03082
G1 X91.418 Y59.545 E2.84988
G1 X91.868 Y58.206 E0.04431
G1 X92.206 Y58.353 F10800.000
G1 F1200
G1 X92.505 Y57.961 E0.01546
G1 X93.236 Y57.285 E0.03121
G1 X93.729 Y57.023 E0.01752
G1 X94.587 Y56.795 E0.02783
G1 X155.410 Y56.798 E1.90704
G1 X156.013 Y56.923 E0.01933
G1 X156.628 Y57.197 E0.02110
G1 X157.492 Y57.957 E0.03609
G1 X157.972 Y58.714 E0.02809
G1 X158.205 Y59.587 E0.02835
G1 X158.205 Y150.424 E2.84813
G1 X157.794 Y151.647 E0.04045
G1 X157.495 Y152.039 E0.01546
G1 X156.764 Y152.715 E0.03121
G1 X156.271 Y152.977 E0.01752
G1 X155.413 Y153.205 E0.02783
G1 X94.576 Y153.205 E1.90750
G1 X93.353 Y152.794 E0.04045
G1 X92.961 Y152.495 E0.01546
G1 X92.285 Y151.764 E0.03121
G1 X92.023 Y151.271 E0.01752
G1 X91.795 Y150.413 E0.02783
G1 X91.795 Y59.576 E2.84813
G1 X92.187 Y58.410 E0.03857
G1 X92.525 Y58.555 F10800.000
G1 F1200
G1 X92.775 Y58.225 E0.01301
G1 X93.438 Y57.604 E0.02845
G1 X93.851 Y57.380 E0.01474
G1 X94.613 Y57.172 E0.02477
G1 X155.389 Y57.176 E1.90559
G1 X155.914 Y57.287 E0.01681
G1 X156.445 Y57.528 E0.01829
G1 X157.222 Y58.221 E0.03263
G1 X157.616 Y58.841 E0.02306
G1 X157.828 Y59.613 E0.02510
G1 X157.828 Y150.394 E2.84636
G1 X157.475 Y151.445 E0.03476
G1 X157.225 Y151.775 E0.01301
G1 X156.562 Y152.396 E0.02845
G1 X156.149 Y152.620 E0.01474
G1 X155.387 Y152.828 E0.02477
G1 X94.606 Y152.828 E1.90573
G1 X93.555 Y152.475 E0.03476
G1 X93.225 Y152.225 E0.01301
G1 X92.604 Y151.562 E0.02845
G1 X92.380 Y151.149 E0.01474
G1 X92.172 Y150.387 E0.02477
G1 X92.172 Y59.606 E2.84636
G1 X92.506 Y58.612 E0.03288
G1 X92.845 Y58.757 F10800.000
G1 F1200
G1 X93.047 Y58.486 E0.01059
G1 X93.643 Y57.922 E0.02573
G1 X93.976 Y57.737 E0.01196
G1 X94.640 Y57.549 E0.02163
G1 X155.368 Y57.553 E1.90408
G1 X155.811 Y57.650 E0.01423
G1 X156.259 Y57.858 E0.01548
G1 X156.950 Y58.483 E0.02920
G1 X157.262 Y58.971 E0.01818
G1 X157.451 Y59.640 E0.02179
G1 X157.451 Y150.363 E2.84456
M73 Q7 S27
M73 P7 R27
G1 X157.155 Y151.243 E0.02912
G1 X156.953 Y151.514 E0.01059
G1 X156.357 Y152.078 E0.02573
G1 X156.024 Y152.263 E0.01196
G1 X155.360 Y152.451 E0.02162
G1 X94.637 Y152.451 E1.90393
G1 X93.757 Y152.155 E0.02912
G1 X93.486 Y151.953 E0.01059
G1 X92.922 Y151.357 E0.02573
G1 X92.737 Y151.024 E0.01196
G1 X92.549 Y150.360 E0.02162
G1 X92.549 Y59.637 E2.84456
G1 X92.826 Y58.814 E0.02724
G1 X92.926 Y59.668 F10800.000
G1 F1200
G1 X93.166 Y58.956 E0.02355
G1 X93.321 Y58.746 E0.00819
G1 X93.851 Y58.237 E0.02305
G1 X94.106 Y58.091 E0.00919
G1 X94.668 Y57.926 E0.01838
G1 X155.346 Y57.930 E1.90250
G1 X155.705 Y58.013 E0.01157
G1 X156.071 Y58.185 E0.01268
G1 X156.676 Y58.743 E0.02580
G1 X156.908 Y59.105 E0.01347
G1 X157.074 Y59.668 E0.01841
G1 X157.074 Y150.332 E2.84271
G1 X156.834 Y151.044 E0.02355
G1 X156.679 Y151.254 E0.00819
G1 X156.149 Y151.763 E0.02305
G1 X155.894 Y151.909 E0.00919
G1 X155.332 Y152.074 E0.01838
G1 X94.668 Y152.074 E1.90208
G1 X93.956 Y151.834 E0.02355
G1 X93.746 Y151.679 E0.00819
G1 X93.237 Y151.149 E0.02305
G1 X93.091 Y150.894 E0.00919
G1 X92.926 Y150.332 E0.01838
G1 X92.926 Y59.728 E2.84083
G1 X93.488 Y59.154 F10800.000
G1 F1200
G1 X93.597 Y59.004 E0.00580
G1 X94.064 Y58.549 E0.02044
G1 X94.241 Y58.444 E0.00643
G1 X94.698 Y58.303 E0.01500
G1 X155.324 Y58.307 E1.90090
G1 X155.562 Y58.362 E0.00767
G1 X155.882 Y58.513 E0.01109
G1 X156.401 Y59.001 E0.02233
G1 X156.556 Y59.242 E0.00898
G1 X156.697 Y59.698 E0.01495
G1 X156.697 Y150.301 E2.84081
G1 X156.512 Y150.846 E0.01806
G1 X156.403 Y150.996 E0.00580
G1 X155.936 Y151.451 E0.02044
G1 X155.759 Y151.556 E0.00643
G1 X155.302 Y151.697 E0.01500
G1 X94.699 Y151.697 E1.90018
G1 X94.154 Y151.512 E0.01806
G1 X94.004 Y151.403 E0.00580
G1 X93.549 Y150.936 E0.02044
G1 X93.444 Y150.759 E0.00643
G1 X93.303 Y150.302 E0.01500
G1 X93.303 Y59.699 E2.84081
G1 X93.469 Y59.210 E0.01618
G1 X93.812 Y59.348 F10800.000
G1 F1200
G1 X93.875 Y59.259 E0.00343
G1 X94.282 Y58.856 E0.01795
G1 X94.383 Y58.794 E0.00371
G1 X94.729 Y58.680 E0.01144
G1 X155.302 Y58.684 E1.89921
G1 X155.419 Y58.711 E0.00377
G1 X155.692 Y58.840 E0.00947
G1 X156.123 Y59.257 E0.01880
G1 X156.207 Y59.385 E0.00479
G1 X156.320 Y59.729 E0.01136
G1 X156.320 Y150.269 E2.83882
G1 X156.188 Y150.652 E0.01270
G1 X156.125 Y150.741 E0.00343
G1 X155.718 Y151.144 E0.01795
G1 X155.617 Y151.206 E0.00371
G1 X155.271 Y151.320 E0.01144
G1 X94.731 Y151.320 E1.89819
G1 X94.348 Y151.188 E0.01270
G1 X94.259 Y151.125 E0.00343
G1 X93.856 Y150.718 E0.01795
G1 X93.794 Y150.617 E0.00371
G1 X93.680 Y150.271 E0.01144
G1 X93.680 Y59.731 E2.83882
G1 X93.793 Y59.405 E0.01081
G1 X94.139 Y59.537 F10800.000
G1 F1200
G1 X94.510 Y59.157 E0.01666
G1 X94.764 Y59.057 E0.00856
G1 X155.250 Y59.057 E1.89648
G1 X155.500 Y59.167 E0.00856
G1 X155.843 Y59.510 E0.01522
G1 X155.943 Y59.764 E0.00856
G1 X155.943 Y150.236 E2.83666
M73 Q10 S26
M73 P11 R26
G1 X155.843 Y150.490 E0.00856
G1 X155.490 Y150.843 E0.01566
G1 X155.236 Y150.943 E0.00856
G1 X94.764 Y150.943 E1.89603
G1 X94.510 Y150.843 E0.00856
G1 X94.157 Y150.490 E0.01566
G1 X94.057 Y150.236 E0.00856
G1 X94.057 Y59.764 E2.83666
G1 X94.119 Y59.594 E0.00569
G1 X94.463 Y59.737 F10800.000
G1 F1200
G1 X94.737 Y59.463 E0.01215
G1 X94.806 Y59.434 E0.00235
G1 X155.194 Y59.434 E1.89340
G1 X155.263 Y59.463 E0.00235
G1 X155.537 Y59.737 E0.01215
G1 X155.566 Y59.806 E0.00235
G1 X155.566 Y150.194 E2.83403
G1 X155.537 Y150.263 E0.00235
G1 X155.263 Y150.537 E0.01215
G1 X155.194 Y150.566 E0.00235
G1 X94.806 Y150.566 E1.89340
G1 X94.737 Y150.537 E0.00235
G1 X94.463 Y150.263 E0.01215
G1 X94.434 Y150.194 E0.00235
G1 X94.440 Y59.792 E2.83447
G1 X94.811 Y59.922 F10800.000
G1 F1200
G1 X94.922 Y59.811 E0.00490
G1 X155.078 Y59.811 E1.88615
G1 X155.189 Y59.922 E0.00490
G1 X155.189 Y150.078 E2.82678
G1 X155.078 Y150.189 E0.00490
G1 X94.922 Y150.189 E1.88615
G1 X94.811 Y150.078 E0.00490
G1 X94.811 Y59.982 E2.82490
; PURGING FINISHED
G1 X95.210 Y60.210 F10800.000
G1 F1200
G1 X154.790 Y60.210 E1.86809
G1 X154.790 Y149.790 E2.80872
G1 X95.210 Y149.790 E1.86809
G1 X95.210 Y60.270 E2.80684
G1 X95.589 Y60.339 F10800.000
G1 X95.587 Y60.587
G1 F1200
G1 X154.413 Y60.587 E1.84444
G1 X154.413 Y149.413 E2.78507
M73 Q14 S25
M73 P14 R25
G1 X95.587 Y149.413 E1.84444
G1 X95.587 Y60.647 E2.78319
G1 X95.964 Y60.964 F10800.000
G1 F1200
G1 X154.036 Y60.964 E1.82080
G1 X154.036 Y149.036 E2.76143
G1 X95.964 Y149.036 E1.82080
G1 X95.964 Y61.024 E2.75954
G1 X96.341 Y61.341 F10800.000
G1 F1200
G1 X97.778 Y61.341 E0.04504
G1 X97.577 Y61.435 E0.00695
G1 X97.170 Y61.720 E0.01556
G1 X96.820 Y62.070 E0.01556
G1 X96.535 Y62.477 E0.01556
G1 X96.341 Y62.892 E0.01437
G1 X96.341 Y61.401 E0.04675
G1 F8640
G1 X97.778 Y61.341 E-0.33201
G1 X97.577 Y61.435 E-0.05122
G1 X97.170 Y61.720 E-0.11456
G1 X96.820 Y62.070 E-0.11457
G1 X96.535 Y62.477 E-0.11456
G1 X96.474 Y62.607 E-0.03308
G1 E-0.04000 F2100.00000
G1 Z0.800 F10800.000
G1 X97.715 Y62.775
G1 Z0.200
G1 E0.80000 F2100.00000
G1 F1200
G1 X97.900 Y62.589 E0.00822
G1 X98.145 Y62.418 E0.00935
G1 X98.415 Y62.292 E0.00935
G1 X98.703 Y62.215 E0.00935
G1 X99.000 Y62.189 E0.00935
G1 X99.297 Y62.215 E0.00935
G1 X99.585 Y62.292 E0.00935
G1 X99.855 Y62.418 E0.00935
G1 X100.100 Y62.589 E0.00935
G1 X100.311 Y62.800 E0.00935
G1 X100.482 Y63.045 E0.00935
G1 X100.608 Y63.315 E0.00935
G1 X100.685 Y63.603 E0.00935
G1 X100.711 Y63.900 E0.00935
G1 X100.685 Y64.197 E0.00935
G1 X100.608 Y64.485 E0.00935
G1 X100.482 Y64.755 E0.00935
G1 X100.311 Y65.000 E0.00935
G1 X100.100 Y65.211 E0.00935
G1 X99.855 Y65.382 E0.00935
G1 X99.585 Y65.508 E0.00935
G1 X99.297 Y65.585 E0.00935
G1 X99.000 Y65.611 E0.00935
G1 X98.703 Y65.585 E0.00935
G1 X98.415 Y65.508 E0.00935
G1 X98.145 Y65.382 E0.00935
G1 X97.900 Y65.211 E0.00935
G1 X97.689 Y65.000 E0.00935
G1 X97.518 Y64.755 E0.00935
G1 X97.392 Y64.485 E0.00935
G1 X97.315 Y64.197 E0.00935
G1 X97.289 Y63.900 E0.00935
G1 X97.315 Y63.603 E0.00935
G1 X97.392 Y63.315 E0.00935
G1 X97.518 Y63.045 E0.00935
G1 X97.676 Y62.820 E0.00860
G1 X97.626 Y62.528 F10800.000
G1 X97.399 Y62.557
G1 F1200
G1 X97.657 Y62.299 E0.01142
G1 X97.955 Y62.091 E0.01142
G1 X98.285 Y61.937 E0.01142
G1 X98.637 Y61.842 E0.01142
G1 X99.000 Y61.811 E0.01142
G1 X99.363 Y61.842 E0.01142
G1 X99.715 Y61.937 E0.01142
G1 X100.045 Y62.091 E0.01142
G1 X100.343 Y62.299 E0.01142
G1 X100.601 Y62.557 E0.01142
G1 X100.809 Y62.855 E0.01142
G1 X100.963 Y63.185 E0.01142
G1 X101.058 Y63.537 E0.01142
G1 X101.089 Y63.900 E0.01142
G1 X101.058 Y64.263 E0.01142
G1 X100.963 Y64.615 E0.01142
G1 X100.809 Y64.945 E0.01142
G1 X100.601 Y65.243 E0.01142
G1 X100.343 Y65.501 E0.01142
G1 X100.045 Y65.709 E0.01142
G1 X99.715 Y65.863 E0.01142
G1 X99.363 Y65.958 E0.01142
G1 X99.000 Y65.989 E0.01142
G1 X98.637 Y65.958 E0.01142
G1 X98.285 Y65.863 E0.01142
G1 X97.955 Y65.709 E0.01142
G1 X97.657 Y65.501 E0.01142
G1 X97.399 Y65.243 E0.01142
G1 X97.191 Y64.945 E0.01142
G1 X97.037 Y64.615 E0.01142
G1 X96.942 Y64.263 E0.01142
G1 X96.911 Y63.900 E0.01142
G1 X96.942 Y63.537 E0.01142
G1 X97.037 Y63.185 E0.01142
G1 X97.191 Y62.855 E0.01142
G1 X97.365 Y62.606 E0.00954
G1 X97.110 Y62.314 F10800.000
G1 F1200
G1 X97.414 Y62.010 E0.01349
G1 X97.766 Y61.763 E0.01349
G1 X98.156 Y61.581 E0.01349
G1 X98.571 Y61.470 E0.01349
G1 X99.000 Y61.432 E0.01349
G1 X99.429 Y61.470 E0.01349
G1 X99.844 Y61.581 E0.01349
G1 X100.234 Y61.763 E0.01349
G1 X100.586 Y62.010 E0.01349
G1 X100.890 Y62.314 E0.01349
G1 X101.137 Y62.666 E0.01349
G1 X101.319 Y63.056 E0.01349
G1 X101.430 Y63.471 E0.01349
G1 X101.468 Y63.900 E0.01349
G1 X101.430 Y64.329 E0.01349
G1 X101.319 Y64.744 E0.01349
G1 X101.137 Y65.134 E0.01349
G1 X100.890 Y65.486 E0.01349
G1 X100.586 Y65.790 E0.01349
G1 X100.234 Y66.037 E0.01349
G1 X99.844 Y66.219 E0.01349
G1 X99.429 Y66.330 E0.01349
G1 X99.000 Y66.368 E0.01349
G1 X98.571 Y66.330 E0.01349
G1 X98.156 Y66.219 E0.01349
G1 X97.766 Y66.037 E0.01349
G1 X97.414 Y65.790 E0.01349
G1 X97.110 Y65.486 E0.01349
G1 X96.863 Y65.134 E0.01349
G1 X96.681 Y64.744 E0.01349
G1 X96.570 Y64.329 E0.01349
G1 X96.532 Y63.900 E0.01349
G1 X96.570 Y63.471 E0.01349
G1 X96.681 Y63.056 E0.01349
G1 X96.863 Y62.666 E0.01349
G1 X97.075 Y62.363 E0.01161
G1 F8640
G1 X97.414 Y62.010 E-0.11300
G1 X97.766 Y61.763 E-0.09933
G1 X98.156 Y61.581 E-0.09933
G1 X98.571 Y61.470 E-0.09933
G1 X99.000 Y61.432 E-0.09933
G1 X99.429 Y61.470 E-0.09933
G1 X99.844 Y61.581 E-0.09933
G1 X100.044 Y61.674 E-0.05103
G1 E-0.04000 F2100.00000
G1 Z0.800 F10800.000
G1 X96.341 Y64.908
G1 Z0.200
G1 E0.80000 F2100.00000
G1 F1200
G1 X96.535 Y65.323 E0.01437
G1 X96.820 Y65.730 E0.01556
G1 X97.170 Y66.080 E0.01556
G1 X97.577 Y66.365 E0.01556
G1 X98.026 Y66.575 E0.01556
G1 X98.506 Y66.703 E0.01556
G1 X99.000 Y66.746 E0.01556
G1 X99.494 Y66.703 E0.01556
G1 X99.974 Y66.575 E0.01556
G1 X100.423 Y66.365 E0.01556
G1 X100.830 Y66.080 E0.01556
